Papirus-GTK/24x24/apps/multimedia-player.svg

<svg height="24" width="24" xmlns="http://www.w3.org/2000/svg" xmlns:xlink="http://www.w3.org/1999/xlink"><radialGradient id="a" cx="19.063" cy="8.4179" gradientTransform="matrix(.51715 0 0 .39731 -.08624 3.4377)" gradientUnits="userSpaceOnUse" r="11"><stop offset="0" stop-color="#484848"/><stop offset="1" stop-color="#333"/></radialGradient><rect fill="#4a4a4a" height="20" rx="1" transform="scale(-1 1)" width="16" x="-20" y="2"/><path d="m7.25 5.2499499h9.5v5.5h-9.5z" style="fill-rule:evenodd;stroke:#363636;stroke-width:.49987;stroke-linecap:round;stroke-linejoin:round;stroke-miterlimit:3.42860007;fill:url(#a)"/><path d="m10 14.5v6l5.99995-3-5.399519-2.6998z" opacity=".2"/><path d="m308-117v12l11-6-9.8992-5.3996z" fill="#19c0f0" opacity=".5" transform="matrix(.54545 0 0 .5 -157.9986 72.5)"/><path d="m5 2c-.554 0-1 .446-1 1v .5c0-.554.446-1 1-1h14c .554 0 1 .446 1 1v-.5c0-.554-.446-1-1-1z" fill="#fff" opacity=".1"/><path d="m4 20.5v.5c0 .554.446 1 1 1h14c .554 0 1-.446 1-1v-.5c0 .554-.446 1-1 1h-14c-.554 0-1-.446-1-1z" opacity=".3"/></svg>

<?xml version="1.0" encoding="UTF-8" standalone="no"?>
<!-- Created with Inkscape (http://www.inkscape.org/) -->

<svg
   xmlns:dc="http://purl.org/dc/elements/1.1/"
   xmlns:cc="http://creativecommons.org/ns#"
   xmlns:rdf="http://www.w3.org/1999/02/22-rdf-syntax-ns#"
   xmlns:svg="http://www.w3.org/2000/svg"
   xmlns="http://www.w3.org/2000/svg"
   xmlns:sodipodi="http://sodipodi.sourceforge.net/DTD/sodipodi-0.dtd"
   xmlns:inkscape="http://www.inkscape.org/namespaces/inkscape"
   id="svg2817"
   height="24"
   width="24"
   version="1.0"
   inkscape:version="0.91 r13725"
   sodipodi:docname="multimedia-player.svg">
  <sodipodi:namedview
     pagecolor="#ffffff"
     bordercolor="#666666"
     borderopacity="1"
     objecttolerance="10"
     gridtolerance="10"
     guidetolerance="10"
     inkscape:pageopacity="0"
     inkscape:pageshadow="2"
     inkscape:window-width="1600"
     inkscape:window-height="849"
     id="namedview21"
     showgrid="false"
     inkscape:zoom="17.31"
     inkscape:cx="2.6024123"
     inkscape:cy="13.107619"
     inkscape:window-x="0"
     inkscape:window-y="0"
     inkscape:window-maximized="1"
     inkscape:current-layer="svg2817" />
  <metadata
     id="metadata57">
    <rdf:RDF>
      <cc:Work
         rdf:about="">
        <dc:format>image/svg+xml</dc:format>
        <dc:type
           rdf:resource="http://purl.org/dc/dcmitype/StillImage" />
        <dc:title />
      </cc:Work>
    </rdf:RDF>
  </metadata>
  <defs
     id="defs2819">
    <radialGradient
       id="radialGradient2429"
       gradientUnits="userSpaceOnUse"
       cy="8.4179"
       cx="19.063"
       gradientTransform="matrix(0.51715,0,0,0.39731,-0.08624,3.4377)"
       r="11">
      <stop
         id="stop5750"
         stop-color="#484848"
         offset="0" />
      <stop
         id="stop5752"
         stop-color="#333"
         offset="1" />
    </radialGradient>
  </defs>
  <rect
     style="fill:#4a4a4a"
     id="rect4203"
     ry="1"
     rx="1"
     transform="scale(-1,1)"
     height="20"
     width="16"
     y="2"
     x="-20" />
  <rect
     style="fill:url(#radialGradient2429);fill-rule:evenodd;stroke:#363636;stroke-width:0.49987;stroke-linecap:round;stroke-linejoin:round;stroke-miterlimit:3.42860007"
     id="rect4140"
     rx="0"
     ry="0"
     height="5.5"
     width="9.5"
     stroke-miterlimit="3.4286"
     y="5.2499499"
     x="7.25" />
  <path
     d="m 10,14.5 0,6 5.99995,-3 -5.399519,-2.6998 z"
     id="path4152"
     inkscape:connector-curvature="0"
     style="opacity:0.2;fill:#000000;fill-opacity:1" />
  <g
     id="g5610"
     style="fill:#19c0f0;enable-background:new"
     transform="matrix(0.54545,0,0,0.5,8.36365,13)">
    <g
       style="fill:#19c0f0"
       id="layer12"
       transform="translate(-305,119)">
      <path
         style="opacity:0.5;fill:#19c0f0"
         inkscape:connector-curvature="0"
         id="path3807-1-1-9-38-4"
         d="m 308,-117 0,12 11,-6 -9.8992,-5.3996 z" />
    </g>
  </g>
  <path
     style="fill:#ffffff;fill-opacity:1;opacity:0.1"
     d="M 5 2 C 4.446 2 4 2.446 4 3 L 4 3.5 C 4 2.946 4.446 2.5 5 2.5 L 19 2.5 C 19.554 2.5 20 2.946 20 3.5 L 20 3 C 20 2.446 19.554 2 19 2 L 5 2 z "
     id="rect4157" />
  <path
     style="fill:#000000;fill-opacity:1;opacity:0.3"
     d="M 4 20.5 L 4 21 C 4 21.554 4.446 22 5 22 L 19 22 C 19.554 22 20 21.554 20 21 L 20 20.5 C 20 21.054 19.554 21.5 19 21.5 L 5 21.5 C 4.446 21.5 4 21.054 4 20.5 z "
     id="rect4162" />
</svg>
